src/lib/packages/icons/src/assets/filled/cloud-download.svg

<svg width="24" height="24" viewBox="0 0 24 24" fill="none" xmlns="http://www.w3.org/2000/svg">
<path d="M21 10.95C21 13.71 18.76 15.95 16 15.95H12.75V11C12.75 10.586 12.414 10.25 12 10.25C11.586 10.25 11.25 10.586 11.25 11V15.95H9.5C5.91 15.95 3 13.04 3 9.45001C3 5.86001 5.91 2.95001 9.5 2.95001C11.146 2.95001 12.648 3.56298 13.792 4.57098C14.274 4.99598 14.692 5.49098 15.031 6.03998C15.351 5.97998 15.671 5.95001 16.001 5.95001C18.76 5.95001 21 8.19001 21 10.95ZM11.25 19.189L10.53 18.469C10.237 18.176 9.76199 18.176 9.46899 18.469C9.17599 18.762 9.17599 19.237 9.46899 19.53L11.469 21.53C11.538 21.599 11.6209 21.654 11.7129 21.692C11.8049 21.73 11.902 21.75 12 21.75C12.098 21.75 12.1951 21.73 12.2871 21.692C12.3791 21.654 12.462 21.599 12.531 21.53L14.531 19.53C14.824 19.237 14.824 18.762 14.531 18.469C14.238 18.176 13.763 18.176 13.47 18.469L12.75 19.189V15.95H11.25V19.189Z" fill="currentColor"/>
</svg>

<svg xmlns="http://www.w3.org/2000/svg" width="24" height="24" fill="none"><path fill="currentColor" d="M21 10.95c0 2.76-2.24 5-5 5h-3.25V11a.75.75 0 0 0-1.5 0v4.95H9.5a6.5 6.5 0 1 1 5.531-9.91c.32-.06.64-.09.97-.09a5.002 5.002 0 0 1 4.999 5Zm-9.75 8.239-.72-.72a.75.75 0 1 0-1.061 1.061l2 2a.749.749 0 0 0 .818.162.749.749 0 0 0 .244-.162l2-2a.75.75 0 1 0-1.061-1.061l-.72.72V15.95h-1.5v3.239Z"/></svg>
